Yaru++/apps/scalable/parole.svg

<svg enable-background="new" height="256" viewBox="0 0 256 256" width="256" xmlns="http://www.w3.org/2000/svg" xmlns:xlink="http://www.w3.org/1999/xlink">
  <linearGradient id="linearGradient4358" gradientTransform="matrix(0 -1 1 0 -10.0054 585.9946)" gradientUnits="userSpaceOnUse" x1="88" x2="488" y1="88" y2="488">
    <stop offset="0" stop-opacity=".588235"/>
    <stop offset=".88" stop-opacity="0"/>
    <stop offset="1"/>
  </linearGradient>
  <filter id="filter4380" color-interpolation-filters="sRGB" height="1.088" width="1.106" x="-.05" y="-.04">
    <feGaussianBlur stdDeviation="8.48"/>
  </filter>
  <filter id="filter4346" color-interpolation-filters="sRGB" height="1.022" width="1.026" x="-.01" y="-.01">
    <feGaussianBlur stdDeviation="2.12"/>
  </filter>
  <path d="m189.84323 74c-70.59344 0-78.18921 7.250835-77.84323 77.98706v146.01294 146.01294c-.34598 70.73623 7.24979 77.98706 77.84323 77.98706h196.31354c70.59344 0 76.00668-7.27384 77.84323-77.98706v-146.01294-146.01294c0-70.737067-7.24979-77.98706-77.84323-77.98706z" filter="url(#filter4346)" opacity=".1" transform="matrix(0 .5 -.5 0 276.82523 -15.328148)"/>
  <path d="m189.84323 74c-70.59344 0-78.18921 7.250835-77.84323 77.98706v146.01294 146.01294c-.34598 70.73623 7.24979 77.98706 77.84323 77.98706h196.31354c70.59344 0 77.84323-7.24999 77.84323-77.98706v-146.01294-146.01294c0-70.737067-7.24979-77.98706-77.84323-77.98706z" fill="url(#linearGradient4358)" filter="url(#filter4380)" opacity=".3" transform="matrix(0 .5 -.5 0 276.82523 -15.328148)"/>
  <path d="m241.83043 77.478254c0-36.098811-3.69016-39.983003-39.68984-39.806081h-74.31016-74.310154c-35.99969-.176922-39.68984 3.70727-39.68984 39.806081v100.387326c0 36.09881 3.68973 39.80608 39.68984 39.80608h74.310154 74.31016c36.00011 0 39.68984-3.70727 39.68984-39.80608z" opacity=".1"/>
  <path d="m239.82523 176.74484c0 35.29673-3.62542 39.09461-38.99353 38.92162h-73.00647-73.006464c-35.36812.17299-38.99353-3.62489-38.99353-38.92162v-98.156766c0-35.296716 3.625-38.921616 38.99353-38.921616h73.006464 73.00647c35.36853 0 38.99353 3.6249 38.99353 38.921616z" fill="#3d3846"/>
  <path d="m54.81817 39.667201c-35.36853 0-38.992187 3.623202-38.992187 38.919923v98.158206c0 .0882.0019.16224.002.25v-96.410156c-.000047-35.29672 3.625564-38.921879 38.994094-38.921879h73.005853 73.00586c35.28016 0 38.97394 3.621035 38.99219 38.671879v-1.74805c0-35.296721-3.62561-38.919923-38.99414-38.919923h-73.00586z" fill="#fff" opacity=".3"/>
  <path d="m15.825983 174.74533v2c0 35.29673 3.624067 39.09487 38.992187 38.92188h73.00781 73.00586c35.36811.17299 38.99414-3.62515 38.99414-38.92188v-2c0 35.29673-3.62603 39.09487-38.99414 38.92188h-73.00586-73.00781c-35.36812.17299-38.992187-3.62515-38.992187-38.92188z" opacity=".2"/>
  <g enable-background="new" fill="#fff" transform="matrix(1.79731598805 0 0 1.55721568434 81.96886454078 59.94730345769)">
    <path d="m19.815237 19.158959-.01304 19.025992 16.484344-9.501708z"/>
    <path d="m25.513804 4.049814c-11.681016 0-21.1634175 10.941936-21.1634175 24.424006 0 13.482061 9.4824015 24.424007 21.1634175 24.424007 11.681024 0 21.163418-10.941946 21.163418-24.424007 0-13.48207-9.482394-24.424006-21.163418-24.424006zm0 1.2817776c11.079666 0 20.048525 10.3542434 20.048525 23.1422284 0 12.787986-8.968859 23.142229-20.048525 23.142229-11.079661 0-20.0485241-10.354243-20.0485241-23.142229 0-12.787985 8.9688631-23.1422284 20.0485241-23.1422284z"/>
  </g>
  <path d="m15.826172 169.63477v7.10937c0 4.41209.056399 8.33294.224609 11.81445.168211 3.48152.446324 6.52512.892578 9.1836.446255 2.65847 1.0604 4.93203 1.894532 6.875.417065.97148.889199 1.85911 1.423828 2.67187.534629.81277 1.130954 1.54931 1.796875 2.2168s1.401948 1.26707 2.21289 1.80273c.810943.53566 1.696323 1.00852 2.666016 1.42579 1.939385.83453 4.210425 1.4451 6.867188 1.88671 2.656762.44162 5.699621.71487 9.183593.8711s7.409063.19545 11.830078.17383h73.007811 73.00586c4.42101.02162 8.34611-.0176 11.83008-.17383s6.52683-.42948 9.18359-.8711c2.65676-.44161 4.92781-1.05218 6.86719-1.88671.96969-.41727 1.85507-.89013 2.66602-1.42579.81094-.53566 1.54697-1.13524 2.21289-1.80273s1.26224-1.40403 1.79687-2.2168c.53463-.81276 1.00676-1.70039 1.42383-2.67187.83413-1.94297 1.44828-4.21653 1.89453-6.875.44626-2.65848.72437-5.70208.89258-9.1836.16821-3.48151.22656-7.40236.22656-11.81445v-7.10937z" fill="#efefef"/>
  <g enable-background="new" stroke-width="2.0300211">
    <rect fill="#e01b24" height="12.6003409677" rx="3.04503165" width="182.701899" x="34.5059116" y="182.508837324"/>
    <path d="m106.713762127 182.508837324h110.5123186629v12.6003409677h-110.5123186629z" fill="#979797"/>
    <g fill="#3d3846">
      <path d="m165.015968119 182.508837324h52.2080826498v12.6003409677h-52.2080826498z"/>
      <rect height="12.6003409677" rx="3.04503165" width="52.2080826498" x="169.076010319" y="182.508837324"/>
    </g>
  </g>
</svg>

<svg xmlns="http://www.w3.org/2000/svg" xmlns:xlink="http://www.w3.org/1999/xlink" style="enable-background:new" width="256" height="256" version="1.0" viewBox="0 0 256 256">
 <title id="title4162">
  Adwaita Icon Template
 </title>
 <defs>
  <linearGradient id="linearGradient965" x1="48" x2="464" y1="44" y2="44" gradientUnits="userSpaceOnUse">
   <stop id="stop989" offset="0" style="stop-color:#77767b"/>
   <stop id="stop991" offset=".05" style="stop-color:#c0bfbc"/>
   <stop id="stop993" offset=".1" style="stop-color:#9a9996"/>
   <stop id="stop995" offset=".9" style="stop-color:#9a9996"/>
   <stop id="stop997" offset=".95" style="stop-color:#c0bfbc"/>
   <stop id="stop999" offset="1" style="stop-color:#77767b"/>
  </linearGradient>
  <radialGradient id="radialGradient1030" cx="64" cy="194.19" r="44" gradientTransform="matrix(-4.7273,7.9359e-7,-3.0301e-7,-1.6364,238.55,49.766)" gradientUnits="userSpaceOnUse">
   <stop id="stop1016" offset="0" style="stop-color:#fff"/>
   <stop id="stop1018" offset="1" style="stop-color:#fff;stop-opacity:.094118"/>
  </radialGradient>
  <linearGradient id="linearGradient1950" x1="70.347" x2="70.347" y1="245.4" y2="269.14" gradientUnits="userSpaceOnUse">
   <stop id="stop1944" offset="0" style="stop-color:#2d2839"/>
   <stop id="stop1946" offset="1" style="stop-color:#282433"/>
  </linearGradient>
  <linearGradient id="linearGradient4358" x1="88" x2="488" y1="88" y2="488" gradientTransform="rotate(-90,287.9946,298)" gradientUnits="userSpaceOnUse" xlink:href="#linearGradient4360"/>
  <linearGradient id="linearGradient4360">
   <stop id="stop4362" offset="0" style="stop-color:#000000;stop-opacity:0.58823532"/>
   <stop style="stop-color:#000000;stop-opacity:0" id="stop4364" offset=".88"/>
   <stop id="stop4366" offset="1" style="stop-color:#000000"/>
  </linearGradient>
  <filter style="color-interpolation-filters:sRGB" id="filter4380" width="1.106" height="1.088" x="-.05" y="-.04">
   <feGaussianBlur id="feGaussianBlur4382" stdDeviation="8.48"/>
  </filter>
  <filter style="color-interpolation-filters:sRGB" id="filter4346" width="1.026" height="1.022" x="-.01" y="-.01">
   <feGaussianBlur id="feGaussianBlur4348" stdDeviation="2.12"/>
  </filter>
 </defs>
 <path style="opacity:0.1;filter:url(#filter4346)" d="M 189.84323,74 C 119.24979,74 111.65402,81.250835 112,151.98706 V 298 444.01294 C 111.65402,514.74917 119.24979,522 189.84323,522 H 386.15677 C 456.75021,522 462.16345,514.72616 464,444.01294 V 298 151.98706 C 464,81.249993 456.75021,74 386.15677,74 Z" transform="matrix(0,0.5,-0.5,0,276.82523,-15.328148)"/>
 <path d="M 189.84323,74 C 119.24979,74 111.65402,81.250835 112,151.98706 V 298 444.01294 C 111.65402,514.74917 119.24979,522 189.84323,522 H 386.15677 C 456.75021,522 464,514.75001 464,444.01294 V 298 151.98706 C 464,81.249993 456.75021,74 386.15677,74 Z" transform="matrix(0,0.5,-0.5,0,276.82523,-15.328148)" style="opacity:0.3;fill:url(#linearGradient4358);filter:url(#filter4380)"/>
 <path style="opacity:0.1" d="m 241.83043,77.478254 c 0,-36.098811 -3.69016,-39.983003 -39.68984,-39.806081 H 127.83043 53.520276 c -35.99969,-0.176922 -39.68984,3.70727 -39.68984,39.806081 V 177.86558 c 0,36.09881 3.68973,39.80608 39.68984,39.80608 h 74.310154 74.31016 c 36.00011,0 39.68984,-3.70727 39.68984,-39.80608 z"/>
 <path style="fill:#3d3846" d="m 239.82523,176.74484 c 0,35.29673 -3.62542,39.09461 -38.99353,38.92162 H 127.82523 54.818766 c -35.36812,0.17299 -38.99353,-3.62489 -38.99353,-38.92162 V 78.588074 c 0,-35.296716 3.625,-38.921616 38.99353,-38.921616 h 73.006464 73.00647 c 35.36853,0 38.99353,3.6249 38.99353,38.921616 z"/>
 <path style="opacity:0.3;fill:#ffffff" d="m 54.81817,39.667201 c -35.36853,0 -38.992187,3.623202 -38.992187,38.919923 v 98.158206 c 0,0.0882 0.0019,0.16224 0.002,0.25 V 80.585174 c -4.7e-5,-35.29672 3.625564,-38.921879 38.994094,-38.921879 h 73.005853 73.00586 c 35.28016,0 38.97394,3.621035 38.99219,38.671879 v -1.74805 c 0,-35.296721 -3.62561,-38.919923 -38.99414,-38.919923 h -73.00586 z"/>
 <path style="opacity:0.2" d="m 15.825983,174.74533 v 2 c 0,35.29673 3.624067,39.09487 38.992187,38.92188 h 73.00781 73.00586 c 35.36811,0.17299 38.99414,-3.62515 38.99414,-38.92188 v -2 c 0,35.29673 -3.62603,39.09487 -38.99414,38.92188 H 127.82598 54.81817 C 19.45005,213.8402 15.825983,210.04206 15.825983,174.74533 Z"/>
 <g style="enable-background:new" transform="matrix(1.4814148,0,0,1.4814148,277.63065,-205.72379)">
  <g style="fill:#ffffff" transform="matrix(1.2132429,0,0,1.0511679,-132.07765,179.33606)">
   <g>
    <path d="m 19.815237,19.158959 -0.01304,19.025992 16.484344,-9.501708 z" style="fill:#ffffff"/>
    <path style="fill:#ffffff" d="m 25.513804,4.049814 c -11.681016,0 -21.1634175,10.941936 -21.1634175,24.424006 0,13.482061 9.4824015,24.424007 21.1634175,24.424007 11.681024,0 21.163418,-10.941946 21.163418,-24.424007 0,-13.48207 -9.482394,-24.424006 -21.163418,-24.424006 z m 0,1.2817776 c 11.079666,0 20.048525,10.3542434 20.048525,23.1422284 0,12.787986 -8.968859,23.142229 -20.048525,23.142229 -11.079661,0 -20.0485241,-10.354243 -20.0485241,-23.142229 0,-12.787985 8.9688631,-23.1422284 20.0485241,-23.1422284 z"/>
   </g>
  </g>
 </g>
 <path style="fill:#efefef" d="M 15.826172 169.63477 L 15.826172 176.74414 C 15.826172 181.15623 15.882571 185.07708 16.050781 188.55859 C 16.218992 192.04011 16.497105 195.08371 16.943359 197.74219 C 17.389614 200.40066 18.003759 202.67422 18.837891 204.61719 C 19.254956 205.58867 19.72709 206.4763 20.261719 207.28906 C 20.796348 208.10183 21.392673 208.83837 22.058594 209.50586 C 22.724515 210.17335 23.460542 210.77293 24.271484 211.30859 C 25.082427 211.84425 25.967807 212.31711 26.9375 212.73438 C 28.876885 213.56891 31.147925 214.17948 33.804688 214.62109 C 36.46145 215.06271 39.504309 215.33596 42.988281 215.49219 C 46.472253 215.64842 50.397344 215.68764 54.818359 215.66602 L 127.82617 215.66602 L 200.83203 215.66602 C 205.25304 215.68764 209.17814 215.64842 212.66211 215.49219 C 216.14608 215.33596 219.18894 215.06271 221.8457 214.62109 C 224.50246 214.17948 226.77351 213.56891 228.71289 212.73438 C 229.68258 212.31711 230.56796 211.84425 231.37891 211.30859 C 232.18985 210.77293 232.92588 210.17335 233.5918 209.50586 C 234.25772 208.83837 234.85404 208.10183 235.38867 207.28906 C 235.9233 206.4763 236.39543 205.58867 236.8125 204.61719 C 237.64663 202.67422 238.26078 200.40066 238.70703 197.74219 C 239.15329 195.08371 239.4314 192.04011 239.59961 188.55859 C 239.76782 185.07708 239.82617 181.15623 239.82617 176.74414 L 239.82617 169.63477 L 15.826172 169.63477 z"/>
 <g style="enable-background:new" transform="matrix(2.0300211,0,0,2.0300211,326.82895,-298.28136)">
  <rect style="fill:#e01b24" width="90" height="6.207" x="-144" y="236.84" rx="1.5" ry="1.5"/>
  <rect style="fill:#979797" width="54.439" height="6.207" x="-108.43" y="236.84"/>
  <rect style="fill:#3d3846" width="25.718" height="6.207" x="-79.71" y="236.84"/>
  <rect style="fill:#3d3846" width="25.718" height="6.207" x="-77.71" y="236.84" rx="1.5" ry="1.5"/>
 </g>
</svg>
